storage/app/icons/tabler/filled/chess-king.svg

<!--
version: "2.4"
unicode: "f72b"
-->
<svg
  xmlns="http://www.w3.org/2000/svg"
  width="24"
  height="24"
  viewBox="0 0 24 24"
  fill="currentColor"
>
  <path d="M12 2a1 1 0 0 1 .993 .883l.007 .117v2h2a1 1 0 0 1 .117 1.993l-.117 .007h-2v1.758a4.49 4.49 0 0 1 2.033 -.734l.24 -.018l.227 -.006a4.5 4.5 0 0 1 4.5 4.5a4.504 4.504 0 0 1 -4.064 4.478l-.217 .016l-.219 .006h-7a4.5 4.5 0 1 1 2.501 -8.241l-.001 -1.759h-2a1 1 0 0 1 -.117 -1.993l.117 -.007h2v-2a1 1 0 0 1 1 -1z" />
  <path d="M18 18h-12a1 1 0 0 0 -1 1a2 2 0 0 0 2 2h10a2 2 0 0 0 1.987 -1.768l.011 -.174a1 1 0 0 0 -.998 -1.058z" />
</svg>

<svg xmlns="http://www.w3.org/2000/svg" width="24" height="24" fill="currentColor" viewBox="0 0 24 24"><path d="M12 2a1 1 0 0 1 .993.883L13 3v2h2a1 1 0 0 1 .117 1.993L15 7h-2v1.758a4.5 4.5 0 0 1 2.033-.734l.24-.018L15.5 8a4.5 4.5 0 0 1 4.5 4.5 4.504 4.504 0 0 1-4.064 4.478l-.217.016L15.5 17h-7a4.5 4.5 0 1 1 2.501-8.241L11 7H9a1 1 0 0 1-.117-1.993L9 5h2V3a1 1 0 0 1 1-1m6 16H6a1 1 0 0 0-1 1 2 2 0 0 0 2 2h10a2 2 0 0 0 1.987-1.768l.011-.174A1 1 0 0 0 18 18"/></svg>
